X:2022
L:1/8
Q:1/2=60
M:4/4
K:Amin
 a | A<A e>d Bd e2 | d>gB>g d>g (B<G) | A<A e>d B>de>^g | a>eg>B (B<A)A :| e | a<ae>a c>ae>^f | 
 g<gd>g B>g d2 | a<ae>a c>ae>a | a>eg>B (B<A)(Ae) | a<ae>a c>ae>^f | g<gd>g B>gd>g | 
 a<ae>a (g<b)e>^f | a>eg>B (B<A)A ||

